svgs/zoho_survey.svg

<svg width="192" height="192" viewBox="0 0 192 192" fill="none" xmlns="http://www.w3.org/2000/svg"><path d="M72.7729 52.302L92.8859 64.6844C94.8208 65.8756 97.2626 65.8716 99.1936 64.6741L138.553 40.265" stroke="#000" stroke-width="10" stroke-miterlimit="6" stroke-linecap="round" stroke-linejoin="round"/><path d="M133.032 62.265L127.471 85.2188C126.936 87.4272 127.694 89.7483 129.43 91.2147L164.808 121.106" stroke="#000" stroke-width="10" stroke-miterlimit="6" stroke-linecap="round" stroke-linejoin="round"/><path d="M142.148 122.795L118.598 124.6C116.333 124.773 114.36 126.212 113.502 128.316L96.005 171.199" stroke="#000" stroke-width="10" stroke-miterlimit="6" stroke-linecap="round" stroke-linejoin="round"/><path d="M87.454 150.079L78.4606 128.238C77.5955 126.137 75.6176 124.705 73.3515 124.539L27.161 121.151" stroke="#000" stroke-width="10" stroke-miterlimit="6" stroke-linecap="round" stroke-linejoin="round"/><path d="M44.606 106.582L62.596 91.2809C64.3268 89.8088 65.0776 87.4854 64.5355 85.2789L53.485 40.3" stroke="#000" stroke-width="10" stroke-miterlimit="6" stroke-linecap="round" stroke-linejoin="round"/><path d="M96 42.393C101.853 42.393 106.597 37.6485 106.597 31.796C106.597 25.9434 101.853 21.199 96 21.199C90.1474 21.199 85.403 25.9434 85.403 31.796C85.403 37.6485 90.1474 42.393 96 42.393Z" stroke="#000" stroke-width="10" stroke-miterlimit="6" stroke-linecap="round" stroke-linejoin="round"/><path d="M160.018 89.315C165.888 89.315 170.646 84.5566 170.646 78.687C170.646 72.8173 165.888 68.059 160.018 68.059C154.148 68.059 149.39 72.8173 149.39 78.687C149.39 84.5566 154.148 89.315 160.018 89.315Z" stroke="#000" stroke-width="10" stroke-miterlimit="6" stroke-linecap="round" stroke-linejoin="round"/><path d="M135.474 163.307C141.344 163.307 146.102 158.549 146.102 152.679C146.102 146.809 141.344 142.051 135.474 142.051C129.604 142.051 124.846 146.809 124.846 152.679C124.846 158.549 129.604 163.307 135.474 163.307Z" stroke="#000" stroke-width="10" stroke-miterlimit="6" stroke-linecap="round" stroke-linejoin="round"/><path d="M56.885 163.634C62.7546 163.634 67.513 158.876 67.513 153.006C67.513 147.136 62.7546 142.378 56.885 142.378C51.0153 142.378 46.257 147.136 46.257 153.006C46.257 158.876 51.0153 163.634 56.885 163.634Z" stroke="#000" stroke-width="10" stroke-miterlimit="6" stroke-linecap="round" stroke-linejoin="round"/><path d="M31.982 89.2529C37.8517 89.2529 42.61 84.4946 42.61 78.6249C42.61 72.7553 37.8517 67.9969 31.982 67.9969C26.1123 67.9969 21.354 72.7553 21.354 78.6249C21.354 84.4946 26.1123 89.2529 31.982 89.2529Z" stroke="#000" stroke-width="10" stroke-miterlimit="6" stroke-linecap="round" stroke-linejoin="round"/></svg>

<svg xmlns="http://www.w3.org/2000/svg" width="192" height="192" fill="none" viewBox="0 0 192 192"><path stroke="#000" stroke-linecap="round" stroke-linejoin="round" stroke-miterlimit="6" stroke-width="10" d="m72.773 52.302 20.113 12.382a6 6 0 0 0 6.308-.01l39.359-24.409m-5.521 22-5.561 22.954a6 6 0 0 0 1.959 5.996l35.378 29.891m-22.66 1.689-23.55 1.805a6 6 0 0 0-5.096 3.716l-17.497 42.883m-8.551-21.12-8.993-21.841a6 6 0 0 0-5.11-3.699l-46.19-3.388m17.445-14.569 17.99-15.301a6 6 0 0 0 1.94-6.002L53.485 40.3M96 42.393c5.853 0 10.597-4.745 10.597-10.597 0-5.853-4.744-10.597-10.597-10.597s-10.597 4.744-10.597 10.597S90.147 42.393 96 42.393m64.018 46.922c5.87 0 10.628-4.758 10.628-10.628s-4.758-10.628-10.628-10.628-10.628 4.758-10.628 10.628 4.758 10.628 10.628 10.628m-24.544 73.992c5.87 0 10.628-4.758 10.628-10.628s-4.758-10.628-10.628-10.628-10.628 4.758-10.628 10.628 4.758 10.628 10.628 10.628m-78.589.327c5.87 0 10.628-4.758 10.628-10.628s-4.758-10.628-10.628-10.628-10.628 4.758-10.628 10.628 4.758 10.628 10.628 10.628M31.982 89.253c5.87 0 10.628-4.758 10.628-10.628s-4.758-10.628-10.628-10.628-10.628 4.758-10.628 10.628 4.758 10.628 10.628 10.628"/></svg>
